public/products/plex.svg

<svg width="148" height="69" viewBox="0 0 148 69" fill="none" xmlns="http://www.w3.org/2000/svg">
<g clip-path="url(#clip0_249_101)">
<path d="M24.3 12.1992C18.4 12.1992 14.6 13.8992 11.4 17.8992V13.4992H0V67.6992C0 67.6992 0.2 67.7992 0.8 67.8992C1.6 68.0992 5.8 68.9992 8.9 66.3992C11.6 64.0992 12.2 61.3992 12.2 58.3992V50.5992C15.5 54.0992 19.2 55.5992 24.4 55.5992C35.6 55.5992 44.2 46.4992 44.2 34.3992C44.2 21.2992 35.9 12.1992 24.3 12.1992ZM22.1 45.2992C15.8 45.2992 10.8 40.0992 10.8 33.7992C10.8 27.5992 16.7 22.5992 22.1 22.5992C28.5 22.5992 33.4 27.4992 33.4 33.8992C33.4 40.2992 28.4 45.2992 22.1 45.2992Z" fill="#E7E7E7"/>
<path d="M60.3996 33.1C60.3996 37.8 60.8996 43.5 65.4996 49.7C65.5996 49.8 65.7996 50.1 65.7996 50.1C63.8996 53.3 61.5996 55.5 58.4996 55.5C56.0996 55.5 53.6996 54.2 51.6996 52C49.5996 49.6 48.5996 46.5 48.5996 43.2V0H60.2996L60.3996 33.1Z" fill="#E7E7E7"/>
<path d="M118.3 54.2H104.1L117.9 33.9L104.1 13.5H118.3L132 33.9L118.3 54.2Z" fill="#EBAF00"/>
<path d="M135.7 31.6L148 13.5H133.8L128.7 21L135.7 31.6Z" fill="#E7E7E7"/>
<path d="M128.7 46.7992L131.1 50.0992C133.4 53.6992 136.4 55.4992 139.9 55.4992C143.6 55.3992 146.2 52.1992 147.2 50.9992C147.2 50.9992 145.4 49.3992 143.1 46.6992C140 43.0992 135.9 36.4992 135.8 36.1992L128.7 46.7992Z" fill="#E7E7E7"/>
<path d="M93.6 42.4992C91.2 44.6992 89.6 45.8992 86.3 45.8992C80.4 45.8992 77 41.6992 76.5 37.0992H107.8C108 36.4992 108.1 35.6992 108.1 34.3992C108.1 21.6992 98.8 12.1992 86.6 12.1992C75 12.1992 65.5 21.8992 65.5 33.9992C65.5 45.9992 75 55.4992 86.9 55.4992C95.2 55.4992 102.4 50.7992 106.3 42.4992H93.6ZM86.7 21.7992C91.9 21.7992 95.8 25.1992 96.7 29.6992H76.9C77.9 24.9992 81.6 21.7992 86.7 21.7992Z" fill="#E7E7E7"/>
</g>
<defs>
<clipPath id="clip0_249_101">
<rect width="148" height="68.2" fill="white"/>
</clipPath>
</defs>
</svg>

<?xml version="1.0" encoding="utf-8"?>
<!-- Generator: Adobe Illustrator 26.2.1, SVG Export Plug-In . SVG Version: 6.00 Build 0)  -->
<svg version="1.1" id="plex-logo" xmlns="http://www.w3.org/2000/svg" xmlns:xlink="http://www.w3.org/1999/xlink" x="0px" y="0px"
	 viewBox="0 0 148 68.2" style="enable-background:new 0 0 148 68.2;" xml:space="preserve">
<style type="text/css">
	.st0{fill:#FFFFFF;}
	.st1{fill:#EBAF00;}
</style>
<g>
	<g>
		<path class="st0" d="M24.3,12.2c-5.9,0-9.7,1.7-12.9,5.7v-4.4H0v54.2c0,0,0.2,0.1,0.8,0.2c0.8,0.2,5,1.1,8.1-1.5
			c2.7-2.3,3.3-5,3.3-8v-7.8c3.3,3.5,7,5,12.2,5c11.2,0,19.8-9.1,19.8-21.2C44.2,21.3,35.9,12.2,24.3,12.2z M22.1,45.3
			c-6.3,0-11.3-5.2-11.3-11.5c0-6.2,5.9-11.2,11.3-11.2c6.4,0,11.3,4.9,11.3,11.3C33.4,40.3,28.4,45.3,22.1,45.3z"/>
		<path class="st0" d="M60.4,33.1c0,4.7,0.5,10.4,5.1,16.6c0.1,0.1,0.3,0.4,0.3,0.4c-1.9,3.2-4.2,5.4-7.3,5.4
			c-2.4,0-4.8-1.3-6.8-3.5c-2.1-2.4-3.1-5.5-3.1-8.8l0-43.2h11.7L60.4,33.1z"/>
		<polygon class="st1" points="118.3,54.2 104.1,54.2 117.9,33.9 104.1,13.5 118.3,13.5 132,33.9 		"/>
		<polygon class="st0" points="135.7,31.6 148,13.5 133.8,13.5 128.7,21 		"/>
		<path class="st0" d="M128.7,46.8c0,0,2.4,3.3,2.4,3.3c2.3,3.6,5.3,5.4,8.8,5.4c3.7-0.1,6.3-3.3,7.3-4.5c0,0-1.8-1.6-4.1-4.3
			c-3.1-3.6-7.2-10.2-7.3-10.5L128.7,46.8z"/>
	</g>
	<path class="st0" d="M93.6,42.5c-2.4,2.2-4,3.4-7.3,3.4c-5.9,0-9.3-4.2-9.8-8.8h31.3c0.2-0.6,0.3-1.4,0.3-2.7
		c0-12.7-9.3-22.2-21.5-22.2C75,12.2,65.5,21.9,65.5,34c0,12,9.5,21.5,21.4,21.5c8.3,0,15.5-4.7,19.4-13H93.6z M86.7,21.8
		c5.2,0,9.1,3.4,10,7.9H76.9C77.9,25,81.6,21.8,86.7,21.8z"/>
</g>
</svg>
